public/assets/icons/saved.svg

<svg width="20" height="20" viewBox="0 0 20 20" fill="none" xmlns="http://www.w3.org/2000/svg">
<path fill-rule="evenodd" clip-rule="evenodd" d="M17.5 9.24777V13.4089C17.5 15.9894 17.5 17.2796 16.8882 17.8434C16.5965 18.1123 16.2282 18.2812 15.8359 18.3261C15.0133 18.4202 14.0527 17.5706 12.1315 15.8714C11.2823 15.1202 10.8577 14.7447 10.3664 14.6457C10.1245 14.597 9.87548 14.597 9.63356 14.6457C9.14229 14.7447 8.71768 15.1202 7.86847 15.8714C5.94728 17.5706 4.98668 18.4202 4.1641 18.3261C3.77179 18.2812 3.40351 18.1123 3.11176 17.8434C2.5 17.2796 2.5 15.9894 2.5 13.4089V9.24777C2.5 5.67393 2.5 3.88701 3.59835 2.77675C4.6967 1.6665 6.46447 1.6665 10 1.6665C13.5355 1.6665 15.3033 1.6665 16.4016 2.77675C17.5 3.88701 17.5 5.67393 17.5 9.24777ZM6.875 4.99984C6.875 4.65466 7.15482 4.37484 7.5 4.37484H12.5C12.8452 4.37484 13.125 4.65466 13.125 4.99984C13.125 5.34502 12.8452 5.62484 12.5 5.62484H7.5C7.15482 5.62484 6.875 5.34502 6.875 4.99984Z" fill="#877EFF"/>
</svg>

<svg width="20" height="20" viewBox="0 0 20 20" fill="none" xmlns="http://www.w3.org/2000/svg"><path fill-rule="evenodd" clip-rule="evenodd" d="M17.5 9.248v4.16c0 2.581 0 3.872-.612 4.435a1.86 1.86 0 0 1-1.052.483c-.823.094-1.783-.755-3.704-2.455-.85-.75-1.274-1.126-1.766-1.225a1.9 1.9 0 0 0-.732 0c-.492.099-.916.474-1.766 1.225-1.92 1.7-2.881 2.55-3.704 2.455a1.87 1.87 0 0 1-1.052-.483C2.5 17.28 2.5 15.99 2.5 13.41V9.248c0-3.574 0-5.361 1.098-6.471S6.464 1.667 10 1.667s5.303 0 6.402 1.11C17.5 3.887 17.5 5.674 17.5 9.247M6.875 5c0-.345.28-.625.625-.625h5a.625.625 0 1 1 0 1.25h-5A.625.625 0 0 1 6.875 5" fill="#877EFF"/></svg>
